dist/images/icons/youtube-footer.svg

<svg width="33" height="34" viewBox="0 0 33 34" fill="none" xmlns="http://www.w3.org/2000/svg">
<ellipse cx="16.5" cy="16.6315" rx="16.5" ry="16.4479" fill="white"/>
<path d="M26.6489 11.7728C26.4582 10.7555 25.5498 10.0146 24.4955 9.78327C22.9179 9.45981 19.9982 9.22852 16.8392 9.22852C13.6821 9.22852 10.7156 9.45981 9.13614 9.78327C8.08377 10.0146 7.17346 10.7085 6.9828 11.7728C6.79027 12.9293 6.59961 14.5484 6.59961 16.6301C6.59961 18.7118 6.79027 20.3309 7.02953 21.4874C7.22206 22.5047 8.1305 23.2456 9.18288 23.4769C10.8577 23.8004 13.7288 24.0317 16.8878 24.0317C20.0468 24.0317 22.9179 23.8004 24.5927 23.4769C25.6451 23.2456 26.5536 22.5517 26.7461 21.4874C26.9367 20.3309 27.176 18.6648 27.2246 16.6301C27.1274 14.5484 26.8881 12.9293 26.6489 11.7728ZM14.2559 19.8683V13.3919L20.0935 16.6301L14.2559 19.8683Z" fill="#0039C8"/>
</svg>

<svg xmlns="http://www.w3.org/2000/svg" width="33" height="34" fill="none"><ellipse cx="16.5" cy="16.631" fill="#fff" rx="16.5" ry="16.448"/><path fill="#0039C8" d="M26.649 11.773c-.19-1.018-1.1-1.758-2.154-1.99-1.577-.323-4.497-.554-7.656-.554-3.157 0-6.123.23-7.703.554-1.052.232-1.963.926-2.153 1.99A29.4 29.4 0 0 0 6.6 16.63c0 2.082.19 3.7.43 4.857.192 1.018 1.1 1.759 2.153 1.99 1.675.323 4.546.555 7.705.555s6.03-.232 7.705-.555c1.052-.231 1.96-.925 2.153-1.99.19-1.156.43-2.822.479-4.857-.098-2.082-.337-3.7-.576-4.857m-12.393 8.095v-6.476l5.837 3.238z"/></svg>
